X:1
T:Title
%%score { 1 | 2 }
L:1/8
M:4/4
K:Bb
V:1 treble nm="Grand Piano"
V:2 bass 
V:1
 z4 z2[Q:1/4=96] [B,D][CE] | [DF]2 [Fd]2 cFAc | [DB]4 [DF]2 [DG][DB] | A3 G F2 e2 | d6 D[CE] | %5
 [DF]2 [Fd]2 cFAc |[M:3/4] B4 c2 |[M:1/4] [Fd][Fd] |[M:4/4] [Fc]3 [D=EB] [EA]2 [EG]2 |[M:3/4] F6 | %10
[M:1/4] dc |[M:4/4] [Dc]2 [DB]2 [B,D][CE][_D=E][=DF] | [FA]4 [EG]2 [=Ec][EB] | A3 G F2 e2 | d6 dc | %15
 [Dc]2 [DB]2 [B,D][CE][_D=E][=DF] | [EG]4 [Ge]2 [Ge][Ge] | d2 F2 A2 c2 |[M:3/4] [DB]6 |] %19
V:2
 z4 z2 [B,,F,][B,,F,] | [B,,B,]2 [B,,B,]2 [F,A,E][F,A,E][F,CE][F,A,E] | %2
 [B,,B,]4 [B,,B,]2 [B,,B,][B,,B,] | [F,CE]3 [F,B,E] [F,A,E]2[K:treble] [F,A,F]2 | %4
 [B,F]6[K:bass] [B,,F,B,][B,,F,] | [B,,B,]2 [B,,B,]2 [F,A,E][F,A,E][F,CE][F,A,E] | %6
[M:3/4] [G,B,D]4 [F,A,F]2 |[M:1/4] [B,,B,][B,,B,] |[M:4/4] [C,A,]3 [C,G,] [C,C]2 [C,B,]2 | %9
[M:3/4] [F,A,C]6 |[M:1/4] [F,A,F][F,E] |[M:4/4] [B,,F,]2 [B,,F,]2 [B,,F,][B,,F,][B,,B,][B,,B,] | %12
 [E,B,]4 [E,B,]2 [C,B,][C,C] | [F,CE]3 [F,B,E] [F,A,E]2[K:treble] [F,A,F]2 | %14
 [B,F]6[K:bass] [F,A,F][F,E] | [B,,F,]2 [B,,F,]2 [B,,F,][B,,F,][B,,B,][B,,B,] | %16
 [E,B,]4 [E,B,]2 [E,B,][E,B,] | [F,B,F]2 [F,B,D]2 [F,CE]2 [F,E]2 |[M:3/4] [B,,F,]6 |] %19

